X: 116004
T: BLAIR DRUMMOND
Q: "Reel."
R:  Reel.
%R: reel
B: James Kerr "Merry Melodies" v.1 p.16 s.0 #4
Z: 2017 John Chambers <jc:trillian.mit.edu>
M: C
L: 1/8
K: A
|:\
A/A/A c2 Aaec | A/A/A c2 B=gB=G |\
A/A/A c2 Aaef | =gbeg dgB=G ::\
a2(ec) acec | a2(ef) =gdB=G |\
a2(ec) acef | =gbeg dgB=G :|
cAAB cAca | cAA=c B=gB=G |\
cAAB caef | =gbeg dgB=G ||\
a2(ec) acec | a2(ef) =gdB=G |\
a2(ec) acef | =gbef gdB=G |]

%%sep 1 1 500
%%sep 1 1 500

